X:16590
T:The Controversial Reel
R:Reel
S:Billy McComiskey
H:
N:
D:Solo Album
Z:Adrian Scahill
M:4/4
L:1/8
K:G
B3e dBB2|gfgb abge|(3ded Bd (3gfe dB|AdBG ABGA|\
B3e dBB2|gfgb abge|(3ded Bd (3gfe dB|GBAF G3A:||\
B3B A2BA|GEDE GABd|gbaf (3gfe dB|AdBG ABGA|\
B3B A2BA|GEDE GABd|bgaf (3gfe dB|GBAF G3A:||
